;START_OF_HEADER
;HEADER_VERSION:0.1
;FLAVOR:Griffin
;GENERATOR.NAME:Cura_SteamEngine
;GENERATOR.VERSION:4.8.0
;GENERATOR.BUILD_DATE:2020-11-10
;TARGET_MACHINE.NAME:Ultimaker S5
;EXTRUDER_TRAIN.0.INITIAL_TEMPERATURE:200
;EXTRUDER_TRAIN.0.MATERIAL.VOLUME_USED:12041
;EXTRUDER_TRAIN.0.MATERIAL.GUID:506c9f0d-e3aa-4bd4-b2d2-23e2425b1aa9
;EXTRUDER_TRAIN.0.NOZZLE.DIAMETER:0.4
;EXTRUDER_TRAIN.0.NOZZLE.NAME:AA 0.4
;BUILD_PLATE.TYPE:glass
;BUILD_PLATE.INITIAL_TEMPERATURE:60
;BUILD_VOLUME.TEMPERATURE:28
;PRINT.TIME:13776
;PRINT.GROUPS:1
;PRINT.SIZE.MIN.X:132.07
;PRINT.SIZE.MIN.Y:98.57
;PRINT.SIZE.MIN.Z:0.2
;PRINT.SIZE.MAX.X:197.93
;PRINT.SIZE.MAX.Y:141.43
;PRINT.SIZE.MAX.Z:31.9
;END_OF_HEADER
;Generated with Cura_SteamEngine 4.8.0
T0
M82 ;absolute extrusion mode

G92 E0
M109 S200
G280 S1
G0 Z20.001
G1 F1500 E-6.5
;LAYER_COUNT:319
;LAYER:0
M107
M204 S625
M205 X10 Y10
G1 F600 Z2.2
G0 F2571.4 X196.539 Y138.665 Z2.2
M204 S500
M205 X5 Y5
;TYPE:SKIRT
G1 F600 Z0.2
G1 F1500 E0
G1 F1200 X196.06 Y139.235 E0.0098
G1 X195.523 Y139.75 E0.0196
G1 X194.934 Y140.205 E0.0294
G1 X194.3 Y140.594 E0.0392
G1 X193.627 Y140.913 E0.049
G1 X192.924 Y141.158 E0.0588
G1 X192.199 Y141.326 E0.0686
G1 X191 Y141.43 E0.08445
G1 X139 Y141.43 E0.76916
G1 X138.257 Y141.39 E0.77895
G1 X137.522 Y141.271 E0.78876
G1 X136.804 Y141.073 E0.79856
G1 X136.112 Y140.8 E0.80836
G1 X135.453 Y140.454 E0.81816
G1 X134.835 Y140.039 E0.82796
G1 X134.265 Y139.56 E0.83777
G1 X133.75 Y139.023 E0.84756
G1 X133.295 Y138.434 E0.85736
G1 X132.906 Y137.8 E0.86716
G1 X132.587 Y137.127 E0.87696
G1 X132.342 Y136.424 E0.88677
G1 X132.174 Y135.699 E0.89657
G1 X132.07 Y134.5 E0.91241
G1 X132.07 Y105.5 E1.29427
G1 X132.11 Y104.757 E1.30406
G1 X132.229 Y104.022 E1.31387
G1 X132.427 Y103.304 E1.32368
G1 X132.7 Y102.612 E1.33347
G1 X133.046 Y101.953 E1.34327
G1 X133.461 Y101.335 E1.35307
G1 X133.94 Y100.765 E1.36288
G1 X134.477 Y100.25 E1.37267
G1 X135.066 Y99.795 E1.38247
G1 X135.7 Y99.406 E1.39227
G1 X136.373 Y99.087 E1.40208
G1 X137.076 Y98.842 E1.41188
G1 X137.801 Y98.674 E1.42168
G1 X139 Y98.57 E1.43752
G1 X191 Y98.57 E2.12223
G1 X191.743 Y98.61 E2.13203
G1 X192.478 Y98.729 E2.14183
G1 X193.196 Y98.927 E2.15164
G1 X193.888 Y99.2 E2.16143
G1 X194.547 Y99.546 E2.17123
G1 X195.165 Y99.961 E2.18103
G1 X195.735 Y100.44 E2.19084
G1 X196.25 Y100.977 E2.20064
G1 X196.705 Y101.566 E2.21044
G1 X197.094 Y102.2 E2.22023
G1 X197.413 Y102.873 E2.23004
G1 X197.658 Y103.576 E2.23984
G1 X197.826 Y104.301 E2.24964
G1 X197.93 Y105.5 E2.26549
G1 X197.93 Y134.5 E2.64734
G1 X197.89 Y135.243 E2.65714
G1 X197.771 Y135.978 E2.66694
G1 X197.573 Y136.696 E2.67675
G1 X197.3 Y137.388 E2.68654
G1 X196.954 Y138.047 E2.69634
G1 X196.539 Y138.665 E2.70615
M204 S625
M205 X10 Y10
G0 F2571.4 X196.122 Y138.518
M204 S500
M205 X5 Y5
G1 F1200 X195.646 Y139.06 E2.71564
G1 X195.113 Y139.546 E2.72514
G1 X194.529 Y139.97 E2.73465
G1 X193.902 Y140.327 E2.74415
G1 X193.24 Y140.613 E2.75364
G1 X192.55 Y140.823 E2.76314
G1 X191.841 Y140.955 E2.77263
G1 X191 Y141.01 E2.78373
G1 X139 Y141.01 E3.46844
G1 X138.28 Y140.97 E3.47793
G1 X137.568 Y140.851 E3.48744
G1 X136.874 Y140.653 E3.49694
G1 X136.207 Y140.38 E3.50643
G1 X135.573 Y140.035 E3.51593
G1 X134.982 Y139.622 E3.52543
G1 X134.44 Y139.146 E3.53493
G1 X133.954 Y138.613 E3.54442
G1 X133.53 Y138.029 E3.55393
G1 X133.173 Y137.402 E3.56343
G1 X132.887 Y136.74 E3.57292
G1 X132.677 Y136.05 E3.58242
G1 X132.545 Y135.341 E3.59191
G1 X132.49 Y134.5 E3.60301
G1 X132.49 Y105.5 E3.98487
G1 X132.53 Y104.78 E3.99436
G1 X132.649 Y104.068 E4.00387
G1 X132.847 Y103.374 E4.01337
G1 X133.12 Y102.707 E4.02286
G1 X133.465 Y102.073 E4.03236
G1 X133.878 Y101.482 E4.04186
G1 X134.354 Y100.94 E4.05136
G1 X134.887 Y100.454 E4.06085
G1 X135.471 Y100.03 E4.07036
G1 X136.098 Y99.673 E4.07986
G1 X136.76 Y99.387 E4.08935
G1 X137.45 Y99.177 E4.09885
G1 X138.159 Y99.045 E4.10834
G1 X139 Y98.99 E4.11944
G1 X191 Y98.99 E4.80415
G1 X191.72 Y99.03 E4.81364
G1 X192.432 Y99.149 E4.82315
G1 X193.126 Y99.347 E4.83265
G1 X193.793 Y99.62 E4.84214
G1 X194.427 Y99.965 E4.85164
G1 X195.018 Y100.378 E4.86114
G1 X195.56 Y100.854 E4.87064
G1 X196.046 Y101.387 E4.88013
G1 X196.47 Y101.971 E4.88964
G1 X196.827 Y102.598 E4.89914
G1 X197.113 Y103.26 E4.90863
G1 X197.323 Y103.95 E4.91813
G1 X197.455 Y104.659 E4.92763
G1 X197.51 Y105.5 E4.93872
G1 X197.51 Y134.5 E5.32058
G1 X197.47 Y135.22 E5.33007
G1 X197.351 Y135.932 E5.33958
G1 X197.153 Y136.626 E5.34908
G1 X196.88 Y137.293 E5.35857
G1 X196.535 Y137.927 E5.36807
G1 X196.122 Y138.518 E5.37757
M204 S625
M205 X10 Y10
G0 F2571.4 X195.705 Y138.366
M204 S500
M205 X5 Y5
G1 F1200 X195.232 Y138.879 E5.38676
G1 X194.704 Y139.334 E5.39593
G1 X194.127 Y139.726 E5.40512
G1 X193.508 Y140.049 E5.41431
G1 X192.857 Y140.3 E5.4235
G1 X192.181 Y140.474 E5.43269
G1 X191.49 Y140.57 E5.44188
G1 X191 Y140.59 E5.44833
G1 X139 Y140.59 E6.13304
G1 X138.303 Y140.55 E6.14223
G1 X137.616 Y140.431 E6.15141
G1 X136.947 Y140.233 E6.1606
G1 X136.304 Y139.961 E6.16979
G1 X135.698 Y139.617 E6.17897
G1 X135.134 Y139.205 E6.18816
G1 X134.621 Y138.732 E6.19735
G1 X134.166 Y138.204 E6.20653
G1 X133.774 Y137.627 E6.21571
G1 X133.451 Y137.008 E6.22491
G1 X133.2 Y136.357 E6.23409
G1 X133.026 Y135.681 E6.24329
G1 X132.93 Y134.99 E6.25247
G1 X132.91 Y134.5 E6.25893
G1 X132.91 Y105.5 E6.64078
G1 X132.95 Y104.803 E6.64998
G1 X133.069 Y104.116 E6.65916
G1 X133.267 Y103.447 E6.66834
G1 X133.539 Y102.804 E6.67754
G1 X133.883 Y102.198 E6.68671
G1 X134.295 Y101.634 E6.69591
G1 X134.768 Y101.121 E6.7051
G1 X135.296 Y100.666 E6.71427
G1 X135.873 Y100.274 E6.72346
G1 X136.492 Y99.951 E6.73265
G1 X137.143 Y99.7 E6.74184
G1 X137.819 Y99.526 E6.75103
G1 X138.51 Y99.43 E6.76022
G1 X139 Y99.41 E6.76668
G1 X191 Y99.41 E7.45138
G1 X191.697 Y99.45 E7.46057
G1 X192.384 Y99.569 E7.46975
G1 X193.053 Y99.767 E7.47894
G1 X193.696 Y100.039 E7.48813
G1 X194.302 Y100.383 E7.49731
G1 X194.866 Y100.795 E7.5065
G1 X195.379 Y101.268 E7.51569
G1 X195.834 Y101.796 E7.52487
G1 X196.226 Y102.373 E7.53406
G1 X196.549 Y102.992 E7.54325
G1 X196.8 Y103.643 E7.55244
G1 X196.974 Y104.319 E7.56163
G1 X197.07 Y105.01 E7.57081
G1 X197.09 Y105.5 E7.57727
G1 X197.09 Y134.5 E7.95913
G1 X197.05 Y135.197 E7.96832
G1 X196.931 Y135.884 E7.9775
G1 X196.733 Y136.553 E7.98669
G1 X196.461 Y137.196 E7.99588
G1 X196.117 Y137.802 E8.00505
G1 X195.705 Y138.366 E8.01425
M204 S625
M205 X10 Y10
G0 F2571.4 X195.699 Y137.673
M204 S500
M205 X5 Y5
G1 F1200 X195.29 Y138.208 E8.02312
G1 X194.82 Y138.69 E8.03198
G1 X194.296 Y139.113 E8.04085
G1 X193.726 Y139.472 E8.04972
G1 X193.118 Y139.76 E8.05858
G1 X192.48 Y139.974 E8.06744
G1 X191.82 Y140.11 E8.07631
G1 X191 Y140.17 E8.08714
G1 X139 Y140.17 E8.77184
G1 X138.328 Y140.13 E8.78071
G1 X137.665 Y140.011 E8.78958
G1 X137.022 Y139.814 E8.79843
G1 X136.406 Y139.542 E8.8073
G1 X135.827 Y139.199 E8.81616
G1 X135.292 Y138.79 E8.82503
G1 X134.81 Y138.32 E8.83389
G1 X134.387 Y137.796 E8.84276
G1 X134.028 Y137.226 E8.85163
G1 X133.74 Y136.618 E8.86049
G1 X133.526 Y135.98 E8.86935
G1 X133.39 Y135.32 E8.87822
G1 X133.33 Y134.5 E8.88905
G1 X133.33 Y105.5 E9.2709
G1 X133.37 Y104.828 E9.27977
G1 X133.489 Y104.165 E9.28863
G1 X133.686 Y103.522 E9.29749
G1 X133.958 Y102.906 E9.30636
G1 X134.301 Y102.327 E9.31522
G1 X134.71 Y101.792 E9.32408
G1 X135.18 Y101.31 E9.33295
G1 X135.704 Y100.887 E9.34182
G1 X136.274 Y100.528 E9.35069
G1 X136.882 Y100.24 E9.35955
G1 X137.52 Y100.026 E9.36841
G1 X138.18 Y99.89 E9.37728
G1 X139 Y99.83 E9.38811
G1 X191 Y99.83 E10.07281
G1 X191.672 Y99.87 E10.08167
G1 X192.335 Y99.989 E10.09054
G1 X192.978 Y100.186 E10.0994
G1 X193.594 Y100.458 E10.10826
G1 X194.173 Y100.801 E10.11713
G1 X194.708 Y101.21 E10.12599
G1 X195.19 Y101.68 E10.13486
G1 X195.613 Y102.204 E10.14373
G1 X195.972 Y102.774 E10.1526
G1 X196.26 Y103.382 E10.16145
G1 X196.474 Y104.02 E10.17031
G1 X196.61 Y104.68 E10.17919
G1 X196.67 Y105.5 E10.19001
G1 X196.67 Y134.5 E10.57187
G1 X196.63 Y135.172 E10.58073
G1 X196.511 Y135.835 E10.5896
G1 X196.314 Y136.478 E10.59846
G1 X196.042 Y137.094 E10.60732
G1 X195.699 Y137.673 E10.61618
M204 S625
M205 X10 Y10
G0 F2571.4 X195.281 Y137.539
M204 S500
M205 X5 Y5
G1 F1200 X194.874 Y138.043 E10.62471
G1 X194.408 Y138.493 E10.63324
G1 X193.891 Y138.882 E10.64176
G1 X193.329 Y139.205 E10.6503
G1 X192.732 Y139.456 E10.65883
G1 X192.108 Y139.632 E10.66736
G1 X191.468 Y139.729 E10.67589
G1 X191 Y139.75 E10.68206
G1 X139 Y139.75 E11.36676
G1 X138.353 Y139.71 E11.3753
G1 X137.717 Y139.591 E11.38382
G1 X137.1 Y139.394 E11.39234
G1 X136.511 Y139.123 E11.40088
G1 X135.961 Y138.781 E11.40941
G1 X135.457 Y138.374 E11.41794
G1 X135.007 Y137.908 E11.42647
G1 X134.618 Y137.391 E11.43499
G1 X134.295 Y136.829 E11.44352
G1 X134.044 Y136.232 E11.45205
G1 X133.868 Y135.608 E11.46059
G1 X133.771 Y134.968 E11.46911
G1 X133.75 Y134.5 E11.47528
G1 X133.75 Y105.5 E11.85713
G1 X133.79 Y104.853 E11.86567
G1 X133.909 Y104.217 E11.87419
G1 X134.106 Y103.6 E11.88272
G1 X134.377 Y103.011 E11.89125
G1 X134.719 Y102.461 E11.89978
G1 X135.126 Y101.957 E11.90831
G1 X135.592 Y101.507 E11.91684
G1 X136.109 Y101.118 E11.92536
G1 X136.671 Y100.795 E11.9339
G1 X137.268 Y100.544 E11.94242
G1 X137.892 Y100.368 E11.95096
G1 X138.532 Y100.271 E11.95948
G1 X139 Y100.25 E11.96565
G1 X191 Y100.25 E12.65036
G1 X191.647 Y100.29 E12.65889
G1 X192.283 Y100.409 E12.66741
G1 X192.9 Y100.606 E12.67594
G1 X193.489 Y100.877 E12.68448
G1 X194.039 Y101.219 E12.69301
G1 X194.543 Y101.626 E12.70154
G1 X194.993 Y102.092 E12.71007
G1 X195.382 Y102.609 E12.71859
G1 X195.705 Y103.171 E12.72712
G1 X195.956 Y103.768 E12.73565
G1 X196.132 Y104.392 E12.74419
G1 X196.229 Y105.032 E12.75271
G1 X196.25 Y105.5 E12.75888
G1 X196.25 Y134.5 E13.14073
G1 X196.21 Y135.147 E13.14927
G1 X196.091 Y135.783 E13.15779
G1 X195.894 Y136.4 E13.16632
G1 X195.623 Y136.989 E13.17485
G1 X195.281 Y137.539 E13.18338
M204 S625
M205 X10 Y10
G0 F2571.4 X194.864 Y137.398
M204 S500
M205 X5 Y5
G1 F1200 X194.46 Y137.87 E13.19156
G1 X193.998 Y138.287 E13.19976
G1 X193.488 Y138.64 E13.20792
G1 X192.936 Y138.925 E13.2161
G1 X192.351 Y139.137 E13.2243
G1 X191.745 Y139.272 E13.23247
G1 X191 Y139.33 E13.24231
G1 X139 Y139.33 E13.92702
G1 X138.38 Y139.29 E13.9352
G1 X137.77 Y139.171 E13.94338
G1 X137.181 Y138.974 E13.95156
G1 X136.622 Y138.704 E13.95973
G1 X136.102 Y138.364 E13.96791
G1 X135.63 Y137.96 E13.97609
G1 X135.213 Y137.498 E13.98429
G1 X134.86 Y136.988 E13.99245
G1 X134.575 Y136.436 E14.00063
G1 X134.363 Y135.851 E14.00883
G1 X134.228 Y135.245 E14.017
G1 X134.17 Y134.5 E14.02684
G1 X134.17 Y105.5 E14.4087
G1 X134.21 Y104.88 E14.41688
G1 X134.329 Y104.27 E14.42506
G1 X134.526 Y103.681 E14.43324
G1 X134.796 Y103.122 E14.44141
G1 X135.136 Y102.602 E14.44959
G1 X135.54 Y102.13 E14.45777
G1 X136.002 Y101.713 E14.46597
G1 X136.512 Y101.36 E14.47414
G1 X137.064 Y101.075 E14.48232
G1 X137.649 Y100.863 E14.49051
G1 X138.255 Y100.728 E14.49868
G1 X139 Y100.67 E14.50852
G1 X191 Y100.67 E15.19323
G1 X191.62 Y100.71 E15.20141
G1 X192.23 Y100.829 E15.20959
G1 X192.819 Y101.026 E15.21777
G1 X193.378 Y101.296 E15.22594
G1 X193.898 Y101.636 E15.23413
G1 X194.37 Y102.04 E15.24231
G1 X194.787 Y102.502 E15.2505
G1 X195.14 Y103.012 E15.25867
G1 X195.425 Y103.564 E15.26685
G1 X195.637 Y104.149 E15.27504
G1 X195.772 Y104.755 E15.28322
G1 X195.83 Y105.5 E15.29306
G1 X195.83 Y134.5 E15.67491
G1 X195.79 Y135.12 E15.68309
G1 X195.671 Y135.73 E15.69127
G1 X195.474 Y136.319 E15.69945
G1 X195.204 Y136.878 E15.70763
G1 X194.864 Y137.398 E15.71581
M204 S625
M205 X10 Y10
G0 F2571.4 X194.447 Y137.251
M204 S500
M205 X5 Y5
G1 F1200 X194.046 Y137.689 E15.72363
G1 X193.59 Y138.069 E15.73144
G1 X193.087 Y138.385 E15.73926
G1 X192.547 Y138.63 E15.74707
G1 X191.978 Y138.8 E15.75489
G1 X191.392 Y138.893 E15.7627
G1 X191 Y138.91 E15.76787
G1 X139 Y138.91 E16.45257
G1 X138.408 Y138.87 E16.46039
G1 X137.826 Y138.751 E16.46821
G1 X137.266 Y138.555 E16.47602
G1 X136.737 Y138.285 E16.48384
G1 X136.249 Y137.947 E16.49166
G1 X135.811 Y137.546 E16.49948
G1 X135.431 Y137.09 E16.50729
G1 X135.115 Y136.587 E16.51512
G1 X134.87 Y136.047 E16.52292
G1 X134.7 Y135.478 E16.53074
G1 X134.607 Y134.892 E16.53856
G1 X134.59 Y134.5 E16.54372
G1 X134.59 Y105.5 E16.92558
G1 X134.63 Y104.908 E16.93339
G1 X134.749 Y104.326 E16.94121
G1 X134.945 Y103.766 E16.94902
G1 X135.215 Y103.237 E16.95684
G1 X135.553 Y102.749 E16.96466
G1 X135.954 Y102.311 E16.97248
G1 X136.41 Y101.931 E16.9803
G1 X136.913 Y101.615 E16.98812
G1 X137.453 Y101.37 E16.99593
G1 X138.022 Y101.2 E17.00375
G1 X138.608 Y101.107 E17.01156
G1 X139 Y101.09 E17.01672
G1 X191 Y101.09 E17.70143
G1 X191.592 Y101.13 E17.70924
G1 X192.174 Y101.249 E17.71706
G1 X192.734 Y101.445 E17.72488
G1 X193.263 Y101.715 E17.7327
G1 X193.751 Y102.053 E17.74051
G1 X194.189 Y102.454 E17.74833
G1 X194.569 Y102.91 E17.75615
G1 X194.885 Y103.413 E17.76397
G1 X195.13 Y103.953 E17.77178
G1 X195.3 Y104.522 E17.7796
G1 X195.393 Y105.108 E17.78741
G1 X195.41 Y105.5 E17.79258
G1 X195.41 Y134.5 E18.17443
G1 X195.37 Y135.092 E18.18224
G1 X195.251 Y135.674 E18.19007
G1 X195.055 Y136.234 E18.19788
G1 X194.785 Y136.763 E18.2057
G1 X194.447 Y137.251 E18.21351
M204 S625
M205 X10 Y10
G0 F2571.4 X194.031 Y137.095
M204 S500
M205 X5 Y5
G1 F1200 X193.634 Y137.497 E18.22095
G1 X193.185 Y137.839 E18.22839
G1 X192.691 Y138.114 E18.23583
G1 X192.164 Y138.316 E18.24326
G1 X191.614 Y138.442 E18.25069
G1 X191 Y138.49 E18.2588
G1 X139 Y138.49 E18.94351
G1 X138.437 Y138.45 E18.95094
G1 X137.885 Y138.331 E18.95837
G1 X137.355 Y138.135 E18.96581
G1 X136.859 Y137.867 E18.97324
G1 X136.405 Y137.531 E18.98067
G1 X136.003 Y137.134 E18.98811
G1 X135.661 Y136.685 E18.99555
G1 X135.386 Y136.191 E19.00299
G1 X135.184 Y135.664 E19.01042
G1 X135.058 Y135.114 E19.01785
G1 X135.01 Y134.5 E19.02596
G1 X135.01 Y105.5 E19.40781
G1 X135.05 Y104.937 E19.41525
G1 X135.169 Y104.385 E19.42268
G1 X135.365 Y103.855 E19.43012
G1 X135.633 Y103.359 E19.43755
G1 X135.969 Y102.905 E19.44498
G1 X136.366 Y102.503 E19.45242
G1 X136.815 Y102.161 E19.45985
G1 X137.309 Y101.886 E19.4673
G1 X137.836 Y101.684 E19.47473
G1 X138.386 Y101.558 E19.48216
G1 X139 Y101.51 E19.49027
G1 X191 Y101.51 E20.17497
G1 X191.563 Y101.55 E20.18241
G1 X192.115 Y101.669 E20.18984
G1 X192.645 Y101.865 E20.19728
G1 X193.141 Y102.133 E20.20471
G1 X193.595 Y102.469 E20.21214
G1 X193.997 Y102.866 E20.21958
G1 X194.339 Y103.315 E20.22701
G1 X194.614 Y103.809 E20.23446
G1 X194.816 Y104.336 E20.24189
G1 X194.942 Y104.886 E20.24932
G1 X194.99 Y105.5 E20.25743
G1 X194.99 Y134.5 E20.63928
G1 X194.95 Y135.063 E20.64672
G1 X194.831 Y135.615 E20.65415
G1 X194.635 Y136.145 E20.66159
G1 X194.367 Y136.641 E20.66901
G1 X194.031 Y137.095 E20.67645
M204 S625
M205 X10 Y10
G0 F2571.4 X193.949 Y136.513
M204 S500
M205 X5 Y5
G1 F1200 X193.615 Y136.93 E20.68349
G1 X193.224 Y137.293 E20.69051
G1 X192.782 Y137.593 E20.69755
G1 X192.301 Y137.825 E20.70458
G1 X191.79 Y137.981 E20.71161
G1 X191 Y138.07 E20.72208
G1 X139 Y138.07 E21.40678
G1 X138.467 Y138.03 E21.41382
G1 X137.947 Y137.911 E21.42085
G1 X137.45 Y137.716 E21.42788
G1 X136.987 Y137.449 E21.43491
G1 X136.57 Y137.115 E21.44195
G1 X136.207 Y136.724 E21.44897
G1 X135.907 Y136.282 E21.45601
G1 X135.675 Y135.801 E21.46304
G1 X135.519 Y135.29 E21.47008
G1 X135.43 Y134.5 E21.48054
G1 X135.43 Y105.5 E21.8624
G1 X135.47 Y104.967 E21.86944
G1 X135.589 Y104.447 E21.87646
G1 X135.784 Y103.95 E21.88349
G1 X136.051 Y103.487 E21.89053
G1 X136.385 Y103.07 E21.89756
G1 X136.776 Y102.707 E21.90459
G1 X137.218 Y102.407 E21.91162
G1 X137.699 Y102.175 E21.91865
G1 X138.21 Y102.019 E21.92569
G1 X139 Y101.93 E21.93616
G1 X191 Y101.93 E22.62086
G1 X191.533 Y101.97 E22.6279
G1 X192.053 Y102.089 E22.63492
G1 X192.55 Y102.284 E22.64195
G1 X193.013 Y102.551 E22.64899
G1 X193.43 Y102.885 E22.65602
G1 X193.793 Y103.276 E22.66305
G1 X194.093 Y103.718 E22.67008
G1 X194.325 Y104.199 E22.67712
G1 X194.481 Y104.71 E22.68415
G1 X194.57 Y105.5 E22.69462
G1 X194.57 Y134.5 E23.07647
G1 X194.53 Y135.033 E23.08351
G1 X194.411 Y135.553 E23.09053
G1 X194.216 Y136.05 E23.09756
G1 X193.949 Y136.513 E23.1046
M204 S625
M205 X10 Y10
